src/asset/site/footer_instagram.svg

<svg width="31" height="31" viewBox="0 0 31 31" fill="none" xmlns="http://www.w3.org/2000/svg">
<path d="M30 15.5C30 23.5081 23.5081 30 15.5 30C7.49187 30 1 23.5081 1 15.5C1 7.49187 7.49187 1 15.5 1C23.5081 1 30 7.49187 30 15.5Z" stroke="currentColor" stroke-width="2"/>
<path fill-rule="evenodd" clip-rule="evenodd" d="M15.5 9.35132C17.5026 9.35132 17.7397 9.35894 18.5306 9.39502C19.2618 9.4284 19.6589 9.55058 19.9233 9.65326C20.2733 9.78931 20.5232 9.95186 20.7856 10.2143C21.048 10.4767 21.2106 10.7266 21.3466 11.0767C21.4493 11.341 21.5715 11.7381 21.6049 12.4693C21.641 13.2602 21.6486 13.4974 21.6486 15.5C21.6486 17.5026 21.641 17.7397 21.6049 18.5306C21.5715 19.2618 21.4493 19.6589 21.3466 19.9233C21.2106 20.2733 21.048 20.5232 20.7856 20.7856C20.5232 21.048 20.2733 21.2106 19.9233 21.3466C19.6589 21.4493 19.2618 21.5715 18.5306 21.6049C17.7399 21.641 17.5027 21.6486 15.5 21.6486C13.4972 21.6486 13.2601 21.641 12.4693 21.6049C11.7381 21.5715 11.341 21.4493 11.0767 21.3466C10.7266 21.2106 10.4767 21.048 10.2143 20.7856C9.95186 20.5232 9.78931 20.2733 9.65329 19.9233C9.55058 19.6589 9.4284 19.2618 9.39502 18.5306C9.35894 17.7397 9.35132 17.5026 9.35132 15.5C9.35132 13.4974 9.35894 13.2602 9.39502 12.4693C9.4284 11.7381 9.55058 11.341 9.65329 11.0767C9.78931 10.7266 9.95186 10.4767 10.2143 10.2143C10.4767 9.95186 10.7266 9.78931 11.0767 9.65326C11.341 9.55058 11.7381 9.4284 12.4693 9.39502C13.2602 9.35894 13.4974 9.35132 15.5 9.35132ZM15.5 8C13.4631 8 13.2077 8.00863 12.4078 8.04513C11.6094 8.08157 11.0643 8.20834 10.5872 8.39376C10.094 8.58542 9.67574 8.84187 9.25879 9.25882C8.84184 9.67577 8.58539 10.094 8.39373 10.5872C8.20831 11.0643 8.08154 11.6095 8.0451 12.4078C8.0086 13.2077 8 13.4631 8 15.5C8 17.5369 8.0086 17.7923 8.0451 18.5922C8.08154 19.3906 8.20831 19.9357 8.39373 20.4128C8.58539 20.906 8.84184 21.3243 9.25879 21.7412C9.67574 22.1582 10.094 22.4146 10.5872 22.6063C11.0643 22.7917 11.6094 22.9185 12.4078 22.9549C13.2077 22.9914 13.4631 23 15.5 23C17.5369 23 17.7923 22.9914 18.5922 22.9549C19.3905 22.9185 19.9357 22.7917 20.4128 22.6063C20.906 22.4146 21.3242 22.1582 21.7412 21.7412C22.1581 21.3243 22.4146 20.906 22.6062 20.4128C22.7917 19.9357 22.9184 19.3906 22.9549 18.5922C22.9914 17.7923 23 17.5369 23 15.5C23 13.4631 22.9914 13.2077 22.9549 12.4078C22.9184 11.6095 22.7917 11.0643 22.6062 10.5872C22.4146 10.094 22.1581 9.67577 21.7412 9.25882C21.3242 8.84187 20.906 8.58542 20.4128 8.39376C19.9357 8.20834 19.3905 8.08157 18.5922 8.04513C17.7923 8.00863 17.5369 8 15.5 8ZM15.5144 11.6607C13.3859 11.6607 11.6603 13.3863 11.6603 15.5149C11.6603 17.6435 13.3859 19.3691 15.5144 19.3691C17.643 19.3691 19.3686 17.6435 19.3686 15.5149C19.3686 13.3863 17.643 11.6607 15.5144 11.6607ZM15.5153 18.0166C14.1336 18.0166 13.0134 16.8965 13.0134 15.5148C13.0134 14.1331 14.1336 13.013 15.5153 13.013C16.897 13.013 18.0171 14.1331 18.0171 15.5148C18.0171 16.8965 16.897 18.0166 15.5153 18.0166ZM20.3802 11.4822C20.3802 11.9753 19.9805 12.3751 19.4874 12.3751C18.9942 12.3751 18.5945 11.9753 18.5945 11.4822C18.5945 10.9891 18.9942 10.5893 19.4874 10.5893C19.9805 10.5893 20.3802 10.9891 20.3802 11.4822Z" fill="currentColor"/>
</svg>

<svg width="31" height="31" fill="none" xmlns="http://www.w3.org/2000/svg"><path d="M30 15.5C30 23.508 23.508 30 15.5 30S1 23.508 1 15.5 7.492 1 15.5 1 30 7.492 30 15.5z" stroke="currentColor" stroke-width="2"/><path fill-rule="evenodd" clip-rule="evenodd" d="M15.5 9.351c2.003 0 2.24.008 3.03.044.732.033 1.129.156 1.393.258.35.136.6.299.863.561.262.263.425.513.56.863.103.264.226.661.259 1.392.036.791.044 1.028.044 3.031s-.008 2.24-.044 3.03c-.034.732-.156 1.129-.258 1.393-.136.35-.299.6-.561.863a2.324 2.324 0 01-.863.56c-.264.103-.661.226-1.392.259-.791.036-1.028.044-3.031.044s-2.24-.008-3.03-.044c-.732-.034-1.129-.156-1.393-.258-.35-.136-.6-.299-.863-.561a2.323 2.323 0 01-.56-.863c-.103-.264-.226-.661-.259-1.392-.036-.791-.044-1.028-.044-3.031s.008-2.24.044-3.03c.033-.732.156-1.129.258-1.393.136-.35.299-.6.561-.863.263-.262.513-.425.863-.56.264-.103.661-.226 1.392-.259.791-.036 1.028-.044 3.031-.044zM15.5 8c-2.037 0-2.292.009-3.092.045-.799.037-1.344.163-1.82.349a3.676 3.676 0 00-1.33.865 3.676 3.676 0 00-.864 1.328c-.186.477-.312 1.023-.349 1.82C8.01 13.208 8 13.464 8 15.5s.009 2.292.045 3.092c.037.799.163 1.344.349 1.82.191.494.448.912.865 1.33.417.416.835.673 1.328.864.477.186 1.022.313 1.82.349.8.036 1.056.045 3.093.045s2.292-.009 3.092-.045c.799-.036 1.344-.163 1.82-.349a3.677 3.677 0 001.33-.865c.416-.417.673-.835.864-1.328.186-.477.312-1.022.349-1.82.036-.8.045-1.056.045-3.093s-.009-2.292-.045-3.092c-.037-.798-.163-1.344-.349-1.82a3.676 3.676 0 00-.865-1.33 3.677 3.677 0 00-1.328-.864c-.477-.186-1.023-.312-1.82-.349C17.792 8.01 17.536 8 15.5 8zm.014 3.66a3.854 3.854 0 100 7.71 3.854 3.854 0 000-7.71zm.001 6.357a2.502 2.502 0 110-5.004 2.502 2.502 0 010 5.004zm4.865-6.535a.893.893 0 11-1.786 0 .893.893 0 011.786 0z" fill="currentColor"/></svg>
